icons/frame3.svg

<svg width="80" height="89" viewBox="0 0 80 89" fill="none" xmlns="http://www.w3.org/2000/svg">
<g clip-path="url(#clip0_223_1128)">
<path d="M38.3119 17.6494C39.7029 18.9093 39.7991 20.5827 39.7881 22.2892C39.7606 22.8406 39.7111 23.3919 39.7111 23.9268C39.7111 33.8 39.7111 43.6732 39.7111 53.5464C39.7111 56.4245 39.7469 59.3027 39.7661 62.1808C39.7441 63.4517 39.7139 64.7254 39.7029 65.9991C39.6864 67.769 39.516 67.9289 37.7484 67.9619C37.3855 67.9619 37.0227 67.9868 36.6488 68.0005C35.7361 68.0005 34.8207 67.9702 33.8999 67.9675C30.7963 67.9537 28.8693 66.0928 28.7648 62.9665C28.7346 62.0513 28.7648 61.1332 28.7648 60.2097C28.7456 58.3047 28.3992 57.9877 26.4942 58.1007C21.9859 57.7313 18.9868 54.4809 19.0913 49.9597C19.1105 49.05 18.8164 48.5813 18.0989 48.0988C17.2662 47.5339 16.5527 46.8099 15.9992 45.9683C15.4456 45.1267 15.0627 44.184 14.8726 43.194C14.6824 42.204 14.6886 41.1861 14.8907 40.1985C15.0929 39.2109 15.4872 38.2729 16.0509 37.4381C16.6529 36.5614 16.8261 35.8474 16.3258 34.9569C15.8805 34.1795 15.8282 33.3249 15.798 32.462C16.0427 28.8588 17.6783 26.226 21.1255 24.9082C21.3607 24.8454 21.57 24.7094 21.7232 24.5196C21.8763 24.3298 21.9655 24.0962 21.9777 23.8523C22.5659 19.2815 27.1127 15.8382 32.201 17.4316C32.6384 17.5583 33.1079 17.5089 33.5095 17.2938C34.2701 16.9227 35.115 16.7602 35.9585 16.8226C36.802 16.8851 37.614 17.1703 38.3119 17.6494ZM24.8586 55.0516C25.3557 55.324 25.9021 55.4943 26.4656 55.5525C27.0292 55.6107 27.5987 55.5557 28.1408 55.3907C30.5516 54.7539 31.7777 53.086 32.245 50.7592C32.4292 49.8494 33.0064 49.6565 33.7514 49.8053C34.4964 49.9542 34.7988 50.4973 34.6723 51.2334C34.465 52.4938 34.0089 53.7001 33.3308 54.7814C32.6601 55.8401 30.9805 56.3363 30.8733 57.3315C30.7578 58.3957 31.5 59.6363 31.423 60.8989C31.1481 65.9853 32.3384 65.4891 36.2475 65.4808C36.2923 65.478 36.3373 65.478 36.3822 65.4808C37.0446 65.5497 37.2481 65.2272 37.2453 64.5931C37.2178 56.3574 37.2004 48.1237 37.1931 39.8917C37.1931 36.9115 37.2233 33.9341 37.2288 30.9567C37.2197 29.7156 36.7398 28.5245 35.8866 27.6253C35.0334 26.7262 33.871 26.1864 32.6353 26.1157C31.7474 26.0551 30.9227 26.3445 30.0678 26.4245C29.5428 26.4741 28.905 26.5485 28.7538 25.7877C28.6026 25.0268 28.6823 24.4092 29.4905 24.0784C30.1289 23.8298 30.8006 23.6774 31.4835 23.6263C33.5452 23.4554 35.4118 24.026 37.2371 25.308C37.2371 23.9874 37.2371 22.9371 37.2371 21.884C37.2371 19.389 36.4481 18.8238 34.117 19.7612C33.6837 19.9567 33.215 20.0612 32.7399 20.0683C32.2648 20.0755 31.7933 19.985 31.3543 19.8025C29.9139 19.2346 28.4734 19.4607 27.1402 20.2216C24.0504 21.9804 23.5226 25.7546 25.9856 28.6768C26.5986 29.4046 26.934 30.1076 26.1258 30.8051C25.3176 31.5026 24.6579 30.9816 24.1053 30.3778C23.4868 29.7024 22.8848 28.9801 22.6072 28.0951C22.3295 27.2102 21.9117 27.2681 21.2162 27.6292C20.1173 28.2168 19.2577 29.171 18.786 30.3268C18.3142 31.4826 18.26 32.7674 18.6327 33.9591C19.0054 35.1507 19.7816 36.1743 20.8271 36.8529C21.8726 37.5314 23.1216 37.8223 24.3582 37.6752C25.0895 37.5787 25.4826 37.2892 25.5568 36.4815C25.6294 35.5208 25.8772 34.5817 26.288 33.7108C26.6839 32.9031 27.2117 32.4317 28.1271 32.8617C28.9847 33.2642 28.9325 33.9479 28.6466 34.7171C27.5278 37.7496 28.1298 39.8724 30.6671 41.6588C31.3846 42.1633 31.7337 42.734 31.2829 43.4866C30.7825 44.3137 29.9936 44.2393 29.2431 43.7982C28.0535 43.0963 27.0972 42.0576 26.4942 40.8125C26.167 40.1591 25.9196 39.911 25.0757 40.0764C23.3085 40.431 21.473 40.1271 19.9132 39.2218C18.305 38.312 17.8515 38.5298 17.4749 40.4155C17.3127 40.9857 17.2568 41.581 17.3099 42.1716C17.9037 45.841 20.8341 47.757 24.4077 46.7094C25.2324 46.4668 25.9087 46.4916 26.2138 47.3435C26.5629 48.3111 26.0626 48.9176 25.1142 49.1906C24.2447 49.4781 23.3286 49.597 22.4147 49.5407C21.7275 49.4718 21.5681 49.7805 21.5626 50.4146C21.5571 52.3168 22.8463 54.1694 24.8586 55.0516Z" fill="white"/>
<path d="M20.4736 4.26758C20.7239 4.28025 20.9668 4.3571 21.1791 4.4908C21.3913 4.62449 21.5658 4.81054 21.6859 5.03118C23.0988 7.26591 24.5173 9.49697 25.9413 11.7244C26.4058 12.4521 26.4141 13.1688 25.6664 13.632C24.9187 14.0951 24.2617 13.8029 23.8026 13.0806C22.3621 10.8119 20.8969 8.55419 19.5032 6.25514C18.9204 5.29306 19.473 4.27585 20.4736 4.26758Z" fill="white"/>
<path d="M13.3209 25.2938C13.1499 25.2625 12.9842 25.2068 12.8289 25.1284C10.4813 23.8989 8.13915 22.6603 5.80254 21.4124C5.09056 21.0292 4.8404 20.3842 5.20052 19.6674C5.56063 18.9507 6.22588 18.8404 6.9516 19.2126C9.34044 20.4641 11.7348 21.6936 14.1126 22.9672C14.7146 23.2897 15.138 23.7942 14.8933 24.5467C14.7009 25.1311 14.2501 25.4206 13.3209 25.2938Z" fill="white"/>
<path d="M29.5628 83.0527C28.9278 82.0464 29.0982 80.6956 28.0179 79.8272C27.5753 79.4688 27.8777 78.7244 28.4055 78.2778C29.1972 77.6189 29.2852 76.9793 28.4055 76.2736C27.655 75.6726 27.6798 74.9641 28.3423 74.2694C29.3456 73.2135 29.2522 72.8303 27.853 72.2569C27.1265 71.9674 26.5029 71.4668 26.0621 70.8194C25.6213 70.172 25.3834 69.4073 25.3789 68.6233C25.3789 67.8873 25.6016 67.3138 26.3493 67.1925C27.152 67.063 27.7458 67.5261 27.798 68.2953C27.897 69.7426 28.7436 69.9632 29.9449 69.9273C31.9984 69.8667 34.0683 69.8915 36.1108 69.8805C41.5427 69.8805 46.9765 69.8915 52.4121 69.9135C53.3357 69.9135 53.8086 69.5414 53.9955 68.5958C54.3034 67.0464 55.0951 66.79 56.4036 67.7219C56.6372 70.0045 55.807 71.598 53.5447 72.3699C52.4946 72.7283 52.588 73.5553 53.2285 74.1756C54.0367 74.9558 54.0725 75.5155 53.245 76.3039C52.6238 76.8911 52.599 77.6162 53.3193 78.2833C53.979 78.8898 54.1439 79.5763 53.3495 80.249C53.1048 80.453 52.8519 80.668 52.8602 81.0292C52.9014 82.8046 51.7606 83.7309 50.3861 84.4725C49.2041 84.489 48.0193 84.5386 46.8372 84.5055C46.0565 84.4807 45.7129 84.6737 45.6909 85.5587C45.6387 87.6235 44.5748 88.5912 42.4994 88.6105C41.3998 88.6105 40.314 88.627 39.2226 88.6105C37.3891 88.5747 36.2428 87.5408 36.1218 85.6855C36.0723 84.9191 35.8332 84.6076 35.0717 84.671C34.6209 84.7096 34.1618 84.671 33.6972 84.671C32.0836 84.7702 30.6651 84.3126 29.5628 83.0527ZM41.0452 72.3892C38.3952 72.3892 35.7452 72.3534 33.0952 72.4168C32.5124 72.4306 31.5008 71.8654 31.4321 73.1584C31.3634 74.4513 32.3805 73.8917 32.9798 74.0295C33.0713 74.0364 33.1631 74.0364 33.2547 74.0295C34.0079 74.0764 34.4477 74.4623 34.4587 75.2343C34.4697 76.0062 34.0546 76.4252 33.2959 76.4776C32.8863 76.5079 32.4712 76.4997 32.0644 76.4941C31.4733 76.4941 31.4293 76.8691 31.4266 77.3212C31.4239 77.7733 31.5228 78.1483 32.0946 78.1262C32.4575 78.1262 32.8231 78.1262 33.1942 78.1262C33.9556 78.1262 34.401 78.4846 34.4669 79.2565C34.5357 80.0836 34.0161 80.4034 33.3344 80.5522C33.0595 80.6101 32.7846 80.5522 32.5097 80.5908C32.1468 80.646 31.586 80.362 31.5036 80.9713C31.4321 81.4868 31.8362 81.8204 32.2788 81.9858C32.661 82.1279 33.0643 82.2043 33.4718 82.2119C38.4529 82.2119 43.4313 82.2119 48.4124 82.2119C48.9634 82.2477 49.5092 82.0854 49.9518 81.7542C50.0933 81.6721 50.2073 81.5496 50.2793 81.4023C50.3512 81.2551 50.3779 81.0897 50.3559 80.9272C50.2652 80.4916 49.8748 80.5963 49.5752 80.5826C49.1166 80.5925 48.6578 80.5787 48.2007 80.5412C47.5052 80.4282 47.0022 80.0643 47.0544 79.2593C47.1066 78.4543 47.5602 78.1207 48.3134 78.1097C48.7697 78.1097 49.2288 78.0876 49.6879 78.1097C50.3394 78.1345 50.4136 77.7402 50.4164 77.2192C50.4191 76.6981 50.2019 76.4693 49.6824 76.4831C49.1803 76.5038 48.6775 76.4983 48.176 76.4666C48.0268 76.4668 47.8792 76.4365 47.7421 76.3777C47.605 76.3189 47.4812 76.2327 47.3783 76.1243C47.2755 76.016 47.1957 75.8879 47.1438 75.7477C47.0919 75.6074 47.0689 75.4581 47.0764 75.3087C47.0489 74.5506 47.431 74.0984 48.1952 74.0212C48.5553 73.9882 48.9237 74.0212 49.2948 74.0075C49.8171 73.9882 50.4136 74.1591 50.4411 73.2631C50.4686 72.3671 49.9078 72.3754 49.281 72.3754C46.5266 72.3947 43.7859 72.3892 41.0452 72.3892ZM40.9902 84.5193C40.4404 84.5193 39.8906 84.5193 39.3408 84.5193C38.8735 84.5193 38.5464 84.6489 38.5519 85.2058C38.5519 85.7158 38.6728 86.1293 39.2804 86.1348C40.3799 86.1348 41.4603 86.1348 42.5516 86.1348C43.1674 86.1348 43.2718 85.7186 43.2691 85.2058C43.2691 84.6544 42.9475 84.5166 42.4774 84.5221C42.0073 84.5276 41.496 84.5248 40.9902 84.5248V84.5193Z" fill="white"/>
<path d="M5.49821 37.3994H9.46496C10.3309 37.3994 10.8889 37.7853 10.8642 38.7006C10.8394 39.5524 10.2676 39.8914 9.4897 39.8942C6.79755 39.8942 4.10633 39.8942 1.41602 39.8942C0.566597 39.8942 -0.0271811 39.4697 0.00305739 38.582C0.0332959 37.7771 0.580337 37.3967 1.39403 37.4022C2.7685 37.416 4.14298 37.4022 5.50096 37.4022L5.49821 37.3994Z" fill="white"/>
<path d="M42.0449 21.4622C42.0669 20.3594 42.0917 19.2567 42.1054 18.1539C42.1301 16.4116 42.4958 16.0284 44.2633 16.2572C47.1653 16.63 49.9771 17.5217 52.5652 18.89C57.3132 21.5367 60.9839 25.7712 62.937 30.8548C64.5643 36.068 64.7128 41.2839 62.871 46.4778C61.3178 50.8612 58.7476 54.5471 54.9595 57.2461C53.519 58.2689 52.9033 59.4047 53.0352 61.1415C53.1259 62.2194 53.1947 63.3305 52.8758 64.4167C52.2133 66.669 50.5777 67.9509 48.2548 67.9675C46.7924 67.9675 45.3272 67.9151 43.8565 67.9675C42.5232 68.0281 42.0724 67.4161 42.0999 66.1535C42.1384 64.4608 42.0697 62.7653 42.0477 61.0726C42.0669 60.7969 42.1026 60.5212 42.1026 60.2455C42.1026 47.6302 42.1026 35.0148 42.1026 22.3995C42.1329 22.099 42.0834 21.782 42.0449 21.4622ZM44.6537 55.5754C44.6537 57.7809 44.6179 59.9726 44.6124 62.1726C44.6124 65.6379 44.6124 65.6379 48.1064 65.4808C48.1998 65.4808 48.2905 65.4808 48.3813 65.4808C49.6018 65.3595 50.3797 64.571 50.421 63.336C50.4595 62.2332 50.4017 61.1305 50.443 60.0278C50.5034 58.3461 51.078 56.8905 52.5184 55.9063C54.1663 54.833 55.6403 53.5128 56.8893 51.9915C61.0127 46.7866 62.6428 40.9641 61.1611 34.4028C59.9433 28.4149 56.5979 24.0343 51.2182 21.1948C49.5189 20.2324 47.6905 19.5203 45.789 19.0802C45.0028 18.8955 44.6124 19.0086 44.6344 19.9624C44.6949 22.7551 44.6757 25.5478 44.6894 28.3377C44.6802 37.4188 44.672 46.4981 44.6647 55.5754H44.6537Z" fill="white"/>
<path d="M40.597 76.4806C39.8686 76.4806 39.1374 76.4999 38.3979 76.4806C38.2487 76.4808 38.1011 76.4506 37.964 76.3917C37.8269 76.3329 37.7031 76.2467 37.6003 76.1384C37.4974 76.0301 37.4176 75.9019 37.3657 75.7617C37.3138 75.6215 37.2908 75.4722 37.2983 75.3228C37.2708 74.6171 37.6392 74.063 38.4254 74.0465C39.9263 74.0171 41.4291 74.0171 42.9337 74.0465C43.6951 74.0603 44.1075 74.5179 44.1075 75.2759C44.1075 76.034 43.6731 76.4613 42.9172 76.4916C42.1612 76.522 41.3695 76.4916 40.5943 76.4916L40.597 76.4806Z" fill="white"/>
<path d="M40.6099 80.5853C39.9722 80.5853 39.3344 80.6129 38.6994 80.5853C37.8747 80.5412 37.2782 80.1057 37.2892 79.2428C37.3002 78.38 37.916 78.1209 38.7022 78.1402C40.1124 78.1567 41.5226 78.1402 42.9328 78.1402C43.5431 78.1402 43.9939 78.3248 44.0709 79.0361C44.1478 79.7473 43.9499 80.3565 43.1857 80.4778C42.339 80.6129 41.4704 80.5991 40.6127 80.6515L40.6099 80.5853Z" fill="white"/>
<path d="M57.5328 37.1476C57.3953 37.925 56.8648 38.2502 56.1583 38.3743C55.526 38.242 55.1082 37.9553 55.0065 37.2248C54.4567 33.1642 52.6314 29.8838 49.1045 27.6481C48.4805 27.2511 48.3155 26.6337 48.7801 25.9941C49.2996 25.2774 49.9237 25.2057 50.6796 25.6964C54.825 28.3897 57.005 32.2655 57.5328 37.1476Z" fill="white"/>
<path d="M55.0456 41.5127C56.6235 41.6092 57.0964 42.1467 56.5933 43.5251C56.091 45.0299 55.3208 46.4309 54.3199 47.6601C53.3853 48.7489 52.797 48.7131 51.8458 47.5691C51.8003 47.3657 51.8014 47.1545 51.849 46.9516C51.8967 46.7487 51.9896 46.5592 52.1207 46.3975C53.0562 45.1548 53.8028 43.7799 54.3364 42.3176C54.4656 42.0116 54.8065 41.7828 55.0456 41.5127Z" fill="white"/>
</g>
<defs>
<clipPath id="clip0_223_1128">
<rect width="80" height="88.63" fill="white"/>
</clipPath>
</defs>
</svg>

<svg width="80" height="89" fill="none" xmlns="http://www.w3.org/2000/svg"><g clip-path="url(#a)" fill="#fff"><path d="M38.312 17.65c1.39 1.26 1.487 2.933 1.476 4.64-.027.55-.077 1.102-.077 1.637v29.62c0 2.878.036 5.756.055 8.634-.022 1.27-.052 2.544-.063 3.818-.017 1.77-.187 1.93-1.955 1.963-.362 0-.725.025-1.1.038-.912 0-1.827-.03-2.748-.032-3.104-.014-5.03-1.875-5.135-5.002-.03-.915 0-1.833 0-2.756-.02-1.905-.366-2.222-2.27-2.11-4.51-.369-7.508-3.62-7.404-8.14.02-.91-.275-1.379-.992-1.861a7.661 7.661 0 0 1-3.226-4.905 7.698 7.698 0 0 1 1.178-5.756c.602-.877.775-1.59.275-2.481-.446-.778-.498-1.632-.528-2.495.245-3.603 1.88-6.236 5.327-7.554a1.149 1.149 0 0 0 .853-1.056c.588-4.57 5.135-8.014 10.223-6.42.437.126.907.077 1.309-.138a4.78 4.78 0 0 1 4.802.355zM24.859 55.051a4.254 4.254 0 0 0 3.282.339c2.41-.637 3.637-2.305 4.104-4.632.184-.91.761-1.102 1.506-.954.745.15 1.048.692.921 1.428a9.616 9.616 0 0 1-1.341 3.548c-.67 1.06-2.35 1.555-2.458 2.55-.115 1.065.627 2.305.55 3.568-.275 5.086.915 4.59 4.825 4.582.044-.003.09-.003.134 0 .663.069.866-.254.863-.888-.027-8.236-.045-16.47-.052-24.701 0-2.98.03-5.958.036-8.935a4.892 4.892 0 0 0-1.342-3.332 4.865 4.865 0 0 0-3.252-1.51c-.888-.06-1.712.23-2.567.31-.525.05-1.163.123-1.314-.637-.151-.761-.072-1.379.736-1.71a6.914 6.914 0 0 1 1.994-.452c2.061-.17 3.928.4 5.753 1.682v-3.424c0-2.495-.789-3.06-3.12-2.123a3.475 3.475 0 0 1-2.763.041c-1.44-.567-2.88-.341-4.214.42-3.09 1.758-3.617 5.533-1.154 8.455.613.728.948 1.43.14 2.128-.808.698-1.468.177-2.02-.427-.62-.676-1.221-1.398-1.499-2.283-.277-.885-.695-.827-1.39-.466a5.351 5.351 0 0 0-2.431 2.698 5.37 5.37 0 0 0-.153 3.632 5.355 5.355 0 0 0 2.194 2.894 5.33 5.33 0 0 0 3.531.822c.732-.096 1.125-.386 1.199-1.194.072-.96.32-1.9.731-2.77.396-.808.924-1.28 1.84-.85.857.403.805 1.087.519 1.856-1.12 3.033-.517 5.155 2.02 6.942.718.504 1.067 1.075.616 1.828-.5.827-1.29.752-2.04.311a7.017 7.017 0 0 1-2.749-2.986c-.327-.653-.574-.901-1.418-.736a7.388 7.388 0 0 1-5.163-.854c-1.608-.91-2.061-.692-2.438 1.194a4.836 4.836 0 0 0-.165 1.756c.594 3.669 3.524 5.585 7.098 4.537.824-.242 1.5-.217 1.806.634.349.968-.151 1.575-1.1 1.848a7.19 7.19 0 0 1-2.7.35c-.687-.07-.846.24-.851.874-.006 1.902 1.283 3.754 3.296 4.637zM20.474 4.268a1.463 1.463 0 0 1 1.212.763c1.413 2.235 2.831 4.466 4.255 6.693.465.728.473 1.445-.275 1.908-.747.463-1.404.17-1.863-.551-1.44-2.27-2.906-4.527-4.3-6.826-.583-.962-.03-1.98.97-1.987zM13.32 25.294a1.818 1.818 0 0 1-.491-.166 983.939 983.939 0 0 1-7.026-3.716c-.712-.383-.963-1.028-.602-1.745.36-.716 1.025-.827 1.75-.454 2.39 1.251 4.784 2.48 7.162 3.754.602.323 1.025.827.78 1.58-.192.584-.643.874-1.572.747z"/><path d="M29.563 83.053c-.635-1.007-.465-2.357-1.545-3.226-.443-.358-.14-1.103.387-1.55.792-.658.88-1.298 0-2.003-.75-.601-.725-1.31-.063-2.005 1.004-1.056.91-1.439-.489-2.012a3.925 3.925 0 0 1-1.79-1.438 3.942 3.942 0 0 1-.684-2.196c0-.736.223-1.31.97-1.43.803-.13 1.397.333 1.449 1.102.099 1.448.946 1.668 2.147 1.632 2.053-.06 4.123-.036 6.166-.047 5.432 0 10.866.011 16.301.034.924 0 1.397-.373 1.584-1.318.307-1.55 1.1-1.806 2.408-.874.233 2.282-.597 3.876-2.86 4.648-1.05.358-.956 1.185-.316 1.806.809.78.844 1.34.017 2.128-.621.587-.646 1.312.074 1.98.66.606.825 1.292.03 1.965-.244.204-.497.419-.489.78.041 1.776-1.1 2.702-2.474 3.444-1.182.016-2.367.066-3.549.032-.78-.024-1.124.169-1.146 1.054-.052 2.065-1.116 3.032-3.192 3.052-1.1 0-2.185.016-3.276 0-1.834-.036-2.98-1.07-3.101-2.925-.05-.767-.289-1.078-1.05-1.015-.451.039-.91 0-1.375 0-1.613.1-3.032-.358-4.134-1.618zm11.482-10.664c-2.65 0-5.3-.036-7.95.028-.583.014-1.594-.552-1.663.741-.069 1.293.948.734 1.548.871.091.007.183.007.275 0 .753.047 1.193.433 1.204 1.205.01.772-.404 1.191-1.163 1.244-.41.03-.825.022-1.232.016-.59 0-.635.375-.637.827-.003.452.096.827.668.805h1.1c.76 0 1.206.359 1.272 1.13.069.828-.45 1.147-1.133 1.296-.275.058-.55 0-.824.039-.363.055-.924-.229-1.006.38-.072.516.332.85.775 1.015.382.142.785.218 1.193.226h14.94a2.318 2.318 0 0 0 1.54-.458.826.826 0 0 0 .404-.827c-.09-.435-.481-.33-.78-.344a13.3 13.3 0 0 1-1.375-.042c-.696-.113-1.199-.477-1.147-1.282.053-.805.506-1.138 1.26-1.15.456 0 .915-.021 1.374 0 .651.026.726-.369.728-.89.003-.52-.214-.75-.734-.736-.502.02-1.005.015-1.506-.016a1.097 1.097 0 0 1-1.032-.72 1.105 1.105 0 0 1-.068-.438c-.027-.758.355-1.21 1.12-1.288.36-.033.728 0 1.099-.014.522-.019 1.119.152 1.146-.744.028-.896-.533-.888-1.16-.888-2.754.02-5.495.014-8.236.014zm-.055 12.13h-1.65c-.467 0-.794.13-.788.687 0 .51.12.923.728.929h3.272c.615 0 .72-.416.717-.93 0-.55-.322-.688-.792-.683-.47.006-.981.003-1.487.003v-.006zM5.498 37.4h3.967c.866 0 1.424.385 1.4 1.3-.026.852-.597 1.191-1.375 1.194H1.416c-.85 0-1.443-.424-1.413-1.312.03-.805.577-1.185 1.391-1.18 1.375.014 2.749 0 4.107 0l-.003-.003z"/><path d="M42.045 21.462c.022-1.103.047-2.205.06-3.308.025-1.742.39-2.126 2.158-1.897a24.419 24.419 0 0 1 8.302 2.633 23.234 23.234 0 0 1 10.372 11.965c1.627 5.213 1.776 10.429-.066 15.623-1.553 4.383-4.123 8.07-7.912 10.768-1.44 1.023-2.056 2.159-1.924 3.895.09 1.078.16 2.19-.16 3.276-.662 2.252-2.297 3.534-4.62 3.55-1.463 0-2.928-.052-4.399 0-1.333.061-1.784-.55-1.756-1.814.038-1.692-.03-3.388-.052-5.08.019-.276.055-.552.055-.828V22.4c.03-.3-.02-.617-.058-.937zm2.609 34.113c0 2.206-.036 4.398-.042 6.598 0 3.465 0 3.465 3.494 3.308h.275c1.22-.121 1.999-.91 2.04-2.145.038-1.103-.02-2.206.022-3.308.06-1.682.635-3.137 2.075-4.122a19.245 19.245 0 0 0 4.371-3.914c4.124-5.205 5.754-11.028 4.272-17.59-1.218-5.987-4.563-10.368-9.943-13.207a20.31 20.31 0 0 0-5.429-2.115c-.786-.184-1.177-.071-1.155.882.06 2.793.042 5.586.055 8.376l-.024 27.237h-.011zM40.597 76.48c-.728 0-1.46.02-2.2 0a1.095 1.095 0 0 1-1.031-.718 1.105 1.105 0 0 1-.068-.44c-.027-.705.341-1.259 1.127-1.276 1.501-.029 3.004-.029 4.509 0 .761.014 1.174.472 1.174 1.23s-.435 1.185-1.19 1.216c-.757.03-1.548 0-2.324 0l.003-.011zM40.61 80.585c-.638 0-1.276.028-1.91 0-.825-.044-1.422-.48-1.41-1.342.01-.863.626-1.122 1.412-1.103 1.41.017 2.82 0 4.23 0 .611 0 1.062.185 1.139.896.077.711-.121 1.32-.885 1.442-.847.135-1.716.121-2.573.174l-.003-.067z"/><path d="M57.533 37.148c-.138.777-.668 1.102-1.375 1.226-.632-.132-1.05-.419-1.151-1.15-.55-4.06-2.376-7.34-5.902-9.576-.624-.397-.79-1.014-.325-1.654.52-.717 1.144-.788 1.9-.298 4.145 2.694 6.325 6.57 6.853 11.452zM55.046 41.513c1.578.096 2.05.634 1.547 2.012a13.135 13.135 0 0 1-2.273 4.135c-.935 1.089-1.523 1.053-2.474-.09a1.383 1.383 0 0 1 .275-1.172 15.774 15.774 0 0 0 2.215-4.08c.13-.306.47-.535.71-.805z"/></g><defs><clipPath id="a"><path fill="#fff" d="M0 0h80v88.63H0z"/></clipPath></defs></svg>
